X:565
T: Thady Casey's Fancy
T: Rogha Thaidhg U\'i Chathasaigh
S: B.Breathnach:"Ceol Rince na hEireann" III/160
Z: B.Black
L: 1/8
M: 4/4
R: reel
K: Em
B2 BA B2 ed|B2 Ac BE E2|BAGA (3Bcd ef|gfed Bded|
B2 BA B2 ed|B2 Ac BE E2|BAGA (3Bcd ef|gfed (3Bcd ef ||
g2 ge dB B2|dg g2 Bdef|g2 ga (3bag af|gfed (3Bcd ef|
g2 ge dB B2|dg g2 Bdef|g2 ga (3bag af|gfed Bded ||
